static/images/icons/next.svg

<svg fill="none" height="351" viewBox="0 0 350 351" width="350" xmlns="http://www.w3.org/2000/svg"><path d="m163.539.0942001c-.753.0684259-3.148.3079179-5.303.4789829-49.712 4.481917-96.2761 31.305017-125.7678 72.531817-16.4223 22.9227-26.92568 48.925-30.8944 76.466-1.402735 9.614-1.5738 12.454-1.5738 25.489s.171065 15.875 1.5738 25.489c9.5112 65.723 56.2806 120.943 119.7112 141.402 11.359 3.661 23.334 6.159 36.951 7.664 5.303.582 28.225.582 33.528 0 23.505-2.6 43.417-8.416 63.055-18.441 3.011-1.539 3.593-1.95 3.182-2.292-.274-.205-13.104-17.414-28.5-38.216l-27.986-37.805-35.068-51.902c-19.296-28.533-35.171-51.867-35.308-51.867-.137-.034-.274 23.026-.342 51.183-.103 49.301-.137 51.285-.753 52.449-.89 1.676-1.574 2.36-3.011 3.113-1.095.548-2.053.65-7.219.65h-5.919l-1.573-.992c-1.027-.65-1.779-1.505-2.293-2.498l-.718-1.539.068-68.597.103-68.632 1.061-1.334c.547-.719 1.71-1.642 2.531-2.087 1.403-.684 1.95-.753 7.869-.753 6.98 0 8.143.274 9.956 2.258.514.548 19.502 29.15 42.219 63.602 22.718 34.453 53.783 81.496 69.042 104.59l27.713 41.979 1.403-.924c12.419-8.074 25.557-19.569 35.958-31.544 22.136-25.42 36.402-56.417 41.192-89.467 1.403-9.614 1.574-12.454 1.574-25.489s-.171-15.875-1.574-25.489c-9.511-65.7231-56.28-120.9431-119.711-141.40251-11.188-3.62659-23.094-6.12414-36.437-7.62952-3.285-.342131-25.9-.718475-28.739-.4447699zm71.642 105.8557999c1.642.821 2.976 2.394 3.455 4.037.274.889.342 19.912.274 62.781l-.103 61.515-10.845-16.628-10.88-16.627v-44.717c0-28.91.137-45.161.342-45.948.548-1.916 1.745-3.421 3.387-4.311 1.403-.718 1.916-.787 7.288-.787 5.063 0 5.953.069 7.082.685z" fill="#000"/></svg>

<svg width="350" height="351" viewBox="0 0 350 351" fill="none" xmlns="http://www.w3.org/2000/svg">
<path d="M163.539 0.0942001C162.786 0.162626 160.391 0.402118 158.236 0.573183C108.524 5.0551 61.9599 31.8782 32.4682 73.105C16.0459 96.0277 5.54252 122.03 1.5738 149.571C0.171065 159.185 0 162.025 0 175.06C0 188.095 0.171065 190.935 1.5738 200.549C11.085 266.272 57.8544 321.492 121.285 341.951C132.644 345.612 144.619 348.11 158.236 349.615C163.539 350.197 186.461 350.197 191.764 349.615C215.269 347.015 235.181 341.199 254.819 331.174C257.83 329.635 258.412 329.224 258.001 328.882C257.727 328.677 244.897 311.468 229.501 290.666L201.515 252.861L166.447 200.959C147.151 172.426 131.276 149.092 131.139 149.092C131.002 149.058 130.865 172.118 130.797 200.275C130.694 249.576 130.66 251.56 130.044 252.724C129.154 254.4 128.47 255.084 127.033 255.837C125.938 256.385 124.98 256.487 119.814 256.487H113.895L112.322 255.495C111.295 254.845 110.543 253.99 110.029 252.997L109.311 251.458L109.379 182.861L109.482 114.229L110.543 112.895C111.09 112.176 112.253 111.253 113.074 110.808C114.477 110.124 115.024 110.055 120.943 110.055C127.923 110.055 129.086 110.329 130.899 112.313C131.413 112.861 150.401 141.463 173.118 175.915C195.836 210.368 226.901 257.411 242.16 280.505L269.873 322.484L271.276 321.56C283.695 313.486 296.833 301.991 307.234 290.016C329.37 264.596 343.636 233.599 348.426 200.549C349.829 190.935 350 188.095 350 175.06C350 162.025 349.829 159.185 348.426 149.571C338.915 83.8479 292.146 28.6279 228.715 8.16849C217.527 4.5419 205.621 2.04435 192.278 0.53897C188.993 0.196839 166.378 -0.179505 163.539 0.0942001V0.0942001ZM235.181 105.95C236.823 106.771 238.157 108.344 238.636 109.987C238.91 110.876 238.978 129.899 238.91 172.768L238.807 234.283L227.962 217.655L217.082 201.028V156.311C217.082 127.401 217.219 111.15 217.424 110.363C217.972 108.447 219.169 106.942 220.811 106.052C222.214 105.334 222.727 105.265 228.099 105.265C233.162 105.265 234.052 105.334 235.181 105.95V105.95Z" fill="black"/>
</svg>
